X:65
T:Vanha Haamarssi Pohjanmaalta
M:4/4
L:1/8
Q:1/4=100
R:march
K:D
|: "A7" A | "D" f3 e/2d/2 "A" cd ec | "D" d2 d>d de fg |
a2 a>f "A" g>f a>g | "D" f2 d>d d2 g/2f/2e/2d/2 | !
"A" c2 c>c cd ec | "D" d2 f2 a3 f |
"Em" gb ge "A" d2 c2 | "D" d2 d>d "fine" d3 :| !
|: "A7" A | "D" d>e fg a2 a2 | "A" a>b c'd' a3 a |
g2 a>g "D" f2 g>f | "A" e2 g>e dc BA | !
"D" d>e fg a2 a2 | "A" a>b c'd' a3 a |
"Em" ab ge "A" d2 c2 | "D" d2 "D.C. al fine" d>d d3 :||
